X:28
T:[untitled]
Z:Jack Campin, http://www.campin.me.uk/
F:Jack Campin's Nine-Note Tunebook
% last edit 03-02-2013
S:Blaikie MS (NLS MS.1578) p37, Blaikie #118
N:leading note on the last line moved up from A, in the original
M:3/4
L:1/8
Q:1/4=90
K:DDor
G2|A>A d2 A2 |B>A G2 \
G2|A>A d2 A2 |B>A A2
D2|F>F E2 c>A|G>F E2 \
zC|F>G A2 DF |E>D D2|]

